X:9
T:Return from Fingal, The
R:march
H:This tune is supposed to have been played by Brian Boru's troops on the
H:return from the Battle of Clontarf in 1014. Fingal is another name for
H:Clontarf, but the historicity of this tune's connection to this battle
H:is doubtful due to the long time from the battle until the first mention
H:in writing (19th century).
Z:id:hn-march-9
M:2/4
L:1/8
Q:1/4=90
K:Edor
B/A/G/F/ E/F/G/A/|B/A/G/F/ E>B|A/G/F/A/ dA|BA B/c/d|
B/A/G/F/ E/F/G/A/|B/A/G/F/ E>B|A/G/F/A/ dA|FE E2:|
|:fe ed/c/|BA d>A|BA dA|BA B/c/d/e/|
fe ed/c/|BA d>B|A/G/F/A/ dA|FE E2:|
P:version 2
|:BG/F/ E/F/G/A/|BG/F/ E2|A/G/F/A/ dA|BA B/c/d/e/|
BG/F/ E/F/G/A/|BG/F/ E2|A/G/F/A/ dA/B/|FE E2:|
|:fe ed/c/|BA d>A|BA d>A|BA B/c/d/e/|
fe ed/c/|BA d>B|A/G/F/A/ dA/B/|FE E2:|

